**kern	**kern	**dynam
*part1	*part1	*part1
*staff2	*staff1	*
*I"Piano	*	*
*clefF4	*clefG2	*
*k[]	*k[]	*
=1	=1	=1
4A 4c 4e	8r	.
.	(8aL	.
(8A 8c 8e	8ccJ	<
8AL 8c 8e	8eeL	.
8f	8ff	.
8AJ) 8c 8d 8f#X	8ff#XJ	.
=	=	=
*^	*	*
2.fn [2.g	4G 4B	[2.gg^	[ sf
.	8G 8B	.	.
.	4G 4B	.	.
.	8G 8B	.	.
*v	*v	*	*
=	=	=
4c 4e 4g]	8ggL])	<
.	(8ee	.
*clefG2	*	*
(8c 8e 8g#X	8gg#XJ	.
8cL 8e 8a	8aaL	.
8b	8bb	.
8cJ 8e 8cc	8cccJ	.
=	=	=
*^	*	*
[16aLL 16b	4d	16ffLL [16aa [16bb	[ f >
16aJJ_ [16dd	.	16aaJJ_ 16bb_ [16ddd	.
4a_ 4dd_	.	4aa_ 4bb_ 4ddd_	.
.	8d	.	.
4a] 4dd]	4e	4aa] 4bb] 4ddd]	.
8e) 8b	8rffyy	8dd) 8ee 8gg#X	.
*v	*v	*	*
=	=	=
*	*^	*
8A'L	8cc 8ee 8aa	4.rAyy	] p
8e'	8r	.	.
8g#X'J	8r	.	.
!	!LO:TX:a:t=ritard.	!	!
4r	8cc 8ee	8a'L	.
.	8r	8b'	.
8r	8r	8cc'J	.
=	=	=	=
8A'L	4r	4.ryy	.
8c'	.	.	.
8d#X'J	8r	.	.
4r	8a 8cc	8e'L	.
.	8r	8g#X'	.
*clefF4	*	*	*
8r	8r	8a'J	.
*	*v	*v	*
=	=	=
8AA'	2.r	.
8r	.	.
8r	.	.
8E' 8A 8c	.	.
8r	.	.
8r	.	.
==	==	==
*-	*-	*-
!!!system-decoration: {(s1,s2)}
